X:5
T: Anniversary Waltz
T: Chanesse Valts
O:klezmer
L: 1/4
M: 3/4
R: Waltz
K: Bb
|: "D7"D3- |D ^F G | A3-     | A ^F D | "Gm"B3- | B A  G | D3-     | "G7"D3 |
|  "Cm"e3- | e d c | "Gm"d3- | d c B  | "D7"A3- | A B A  | "Gm"G3- | G3:|
G/4A/4B/4 c/4d/4e/4f/4  |: "Eb"[ge] [ge]>[ge] | [ge] [ge]>[ge] | "Bb"[ge] [fd]>[=e^c] | [f3d]
| "Cm"[ec] [ec]>[ec] | [ec] [ec]>[ec] | "Gm"[ec] [dB]>[^c^A] | [d3B] |
| "D7"[cA] [cA]>[cA] | [cA] [cA]>[cA] | "Gm"[cA] [BG]>[A^F] | [G2D] [gB]
| "Cm"[ec] [cG] [AE] | "D7"[B2D] [A^F] | "Gm"[G3G]- | [G3G] :|





